X: 3771
T: Birthday, The
R: reel
M: 4/4
K: Gdorian
|:dc|BG~G2 DG~G2|BGBc d2cB|AF~F2 CF~F2|AFAc d2dc|
BG~G2 DG~G2|BGBc d2cB|AFAc d_edc|BGAF G2:|
|:(3Bcd|gd~d2 gaba|gagf ~d3e|fc~c2 gc~c2|~a3g fgaf|
[1 gd~d2 gaba|gagf ~d3e|fege aege|fdcA G2:|
[2 gd~d2 gaba|gagf d2fg|(3agf (3gfe fdcA|d2cA G2||

